!!!!SEGMENT: pl-kk--kk-i-40--010-003_massaino-tiburzio--missa-sagitta-ionathe-sanctus.krn
!!!cenid: 16xx:1316
!!!COM: Massaino, Tiburzio
!!!COM-rismID: pe30005207
!!!CDT: <1550->1608
!!!CNT: Italian
!!!OPR: Missa Sagitta Ionathe
!!!OTL: Sanctus
!!!OMV: 003
!!!PDT:
!!!AGN: Sacred; Mass
!!!SMS-siglum: PL-Kk
!!!SMS-shelfmark: Kk.I.40
!!!SMS-shelfwork: 010-003 M
!!!SMS-variant:
!!!SMS-altvar:
!!!NIFC-rismSourceID: 1001154532
!!!NIFC-islandoraID: pl-kk:2717
!!!URL-pdf-islandora: https://repozytorium.nifc.pl/islandora/object/pl-kk%3A2717/datastream/PDF/view
!!!URL-scan: https://polish.musicsources.pl/pl/lokalizacje/galeria/rekopisy/6010 @EN{Scan on Polish Music Sources Website} @PL{Skany w portalu Dziedzictwo Muzyki Polskiej w otwartym dostępie}
!!!ONB-nifc: UWAGA: części Mszy: 1. Kyrie, 2. Et in terra, 3. Sanctus, 4. Benedictus, 5. Agnus Dei. Skan 0013-0014
!!!AIN: 1 empty
!!!key:
**kern	**text
*Iempty	*
*I"Baſso Ripieno.	*
*I'B rip	*
*clefF4	*
*k[b-]	*
*g:	*
*M2/1	*
*met(C|)	*
=1-	=1-
*2\right	*
!LO:TX:t=P:problem=przy kluczu BB- B-	!
2.G\	San-
4F\	.
1E-X	.
=2-	=2-
2D/	.
2C/	.
00D	.
=3-	=3-
.	.
=4-	=4-
.	.
!LO:TX:t=P:problem=kreska pseudotaktowa	!
[0GG	.
=5-	=5-
.	.
!LO:TX:t=P:problem=kreska pseudotaktowa	!
0GG.]	-ctus
=6-	=6-
.	.
=7-	=7-
0r	.
=8-	=8-
2r	.
2.G\	Do-
4G\	-mi-
!LO:TX:t=P:problem=kreska pseudotaktowa	!
2G\	-n(us)
=9-	=9-
1F	De-
2F\	-us
1E-X\	Sab-
=10-	=10-
.	.
!LO:TX:t=P:problem=kreska pseudotaktowa	!
2E-y\	-ba-
2D,</	-oth
*	*ij
2.BB-/	Do-
=11-	=11-
.	.
4BB-/	-mi-
2C/	-n(us)
*lig	*
1C	De-
=12-	=12-
1GG	.
*Xlig	*
2D\	-us
1F\	Sab-
=13-	=13-
.	.
!LO:TX:t=P:problem=kreska pseudotaktowa	!
2C/	-ba-
2C,</	-oth
*	*Xij
2.G\	Do-
=14-	=14-
.	.
4G\	-mi-
!LO:TX:t=P:problem=kreska pseudotaktowa	!
2G\	-n(us)
!LO:TX:t=P:problem=kreska pseudotaktowa	!
1F	De-
!LO:LB:g=original	!
=15-	=15-
2F\	-us
1E-X	Sab-
2E-\	-ba-
=16-	=16-
2D,<\	-oth
1BB-	De-
!LO:TX:t=P:problem=kreska pseudotaktowa	!
2C/	-(us)
=17-	=17-
1C	Sab-
1.G	.
=18-	=18-
.	.
2GG/	-ba-
1Dl;	-oth.
=19||	=19||
!LO:TX:a:Bi:t=Pleni Tacet	!
0ryy	.
=20||	=20||
*M2/1	*
*met(C|)	*
0BB-	O-
=21-	=21-
1.F	-san-
!LO:TX:t=P:problem=kreska pseudotaktowa	!
2F\	-na
=22-	=22-
1.G	in
2GG/	ex-
=23-	=23-
1GG	-cel-
1G	.
=24-	=24-
!LO:TX:t=P:problem=kreska pseudotaktowa	!
0Dl;	-sis.
!LO:PB:g=original	!
=25||	=25||
*M2/1	*
*met(C|)	*
!LO:TX:t=P:problem=kreska pseudotaktowa	!
00r	.
=26-	=26-
.	.
=27-	=27-
2.G\	Be-
4A\	.
2B-\	.
4BB-/	.
!LO:TX:t=P:problem=kreska pseudotaktowa	!
4C/	.
=28-	=28-
2D\	.
2E-X\	-ne-
1D	-dic-
=29-	=29-
!LO:TX:t=P:problem=kreska pseudotaktowa	!
1GG	-t(us),
2.D\	Be-
!LO:TX:t=P:problem=kreska pseudotaktowa	!
4Eny\	.
=30-	=30-
2F\	.
1G	.
2F\	.
=31-	=31-
2.BB-/	-ne-
!LO:TX:t=P:problem=kreska pseudotaktowa	!
4C/	-di-
0.D	-c(tus)
=32-	=32-
.	.
=33-	=33-
2GG,</	.
2G\	qui
1G	Ve-
=34-	=34-
!LO:TX:t=P:problem=kreska pseudotaktowa	!
1F,<	-nit
2F\	in
2.E-X\	N(o-
=35-	=35-
.	.
4E-y\	-mi)-
1D	-ne
1C/	Do-
=36-	=36-
.	.
!LO:TX:t=P:problem=kreska pseudotaktowa	!
2BB-/	.
2.AA/	.
4AA/	.
=37-	=37-
2D/	.
4GG/	.
!LO:TX:t=P:problem=kreska pseudotaktowa	!
4AA/	.
4BB-/	.
4C/	.
4D/	.
!LO:TX:t=P:problem=kreska pseudotaktowa	!
4Eny/	.
!LO:LB:g=original	!
=38-	=38-
4F\	.
4G\	.
2.A\	.
8G\L	.
8F\J	.
1G\	.
=39-	=39-
.	.
!LO:TX:t=P:problem=kreska pseudotaktowa	!
[<2F\	.
!LO:N:xstem:cue	!
4F\]	.
4F\	.
2E-X\	.
=40-	=40-
1.D	.
2D\	-mi-
=41-	=41-
!LO:TX:t=P:problem=kreska pseudotaktowa	!
1GG,<	-ni,
1r	.
=42-	=42-
2r	.
2D\	Qui
1D	ve-
=43-	=43-
!LO:TX:t=P:problem=kreska pseudotaktowa	!
1C	-nit
2C/	in
2.BB-/	N(o-
=44-	=44-
.	.
4BB-/	-mi)-
!LO:TX:t=P:problem=kreska pseudotaktowa	!
2AA/	-ne
2GG/	Do-
1G\	.
=45-	=45-
.	.
2F#X\	-mi-
!LO:TX:t=P:problem=kreska pseudotaktowa	!
0G	-ni,
=46-	=46-
.	.
2r	.
1G\	in
=47-	=47-
.	.
!LO:TX:t=P:problem=kreska pseudotaktowa	!
[<2Fny\	No-
!LO:N:xstem:cue	!
4F\]	.
4F\	-mi-
2E-X\	-ne
=48-	=48-
1.D	Do-
2D\	-mi-
=49-	=49-
0GGl;	-ni.
!LO:LB:g=original	!
=50||	=50||
*M3/2	*
00.r	.
=51-	=51-
.	.
=52-	=52-
.	.
=53-	=53-
.	.
=54-	=54-
0.r	.
=55-	=55-
.	.
=56-	=56-
!LO:TX:t=P:problem=kreska pseudotaktowa	!
1.r	.
=57-	=57-
2GG/	O-
2BB-/	-san-
!LO:TX:t=P:problem=kreska pseudotaktowa	!
2C/	-na
=58-	=58-
1D	in
!LO:TX:t=P:problem=kreska pseudotaktowa	!
2E-X\	ex-
=59-	=59-
1D	-cel-
!LO:TX:t=P:problem=kreska pseudotaktowa	!
2GG/	-ſis
=60-	=60-
2D\	O-
2D\	-san-
!LO:TX:t=P:problem=kreska pseudotaktowa	!
2G\	-na
=61-	=61-
2r	.
2G\	in
!LO:TX:t=P:problem=kreska pseudotaktowa	!
2F\	ex-
=62-	=62-
1BB-	-cel-
!LO:TX:t=P:problem=kreska pseudotaktowa	!
2C/	.
=63-	=63-
1GG	.
!LO:TX:t=P:problem=kreska pseudotaktowa	!
2C/	.
=64-	=64-
(1.G	-sis
=65-	=65-
!LO:TX:t=P:problem=kreska pseudotaktowa	!
1.GG)	.
=66-	=66-
1.r	.
=67-	=67-
2GG/	O-
2BB-/	-san-
!LO:TX:t=P:problem=kreska pseudotaktowa	!
2C/	-na
=68-	=68-
1D	in
!LO:TX:t=P:problem=kreska pseudotaktowa	!
2E-X\	ex-
=69-	=69-
2.D/	-cel-
4C/	.
2BB-/	.
=70-	=70-
4F\	.
4Eny\	.
4D\	.
4C\	.
!LO:TX:t=P:problem=kreska pseudotaktowa	!
2BB-/	-sis
=71-	=71-
!LO:TX:t=P:problem=kreska pseudotaktowa	!
1.r	.
=72-	=72-
*	*ij
2D\	O-
2F\	-san-
2G\	-na
=73-	=73-
1A	in
2B-\	ex-
=74-	=74-
1G	-cel-
!LO:TX:t=P:problem=kreska pseudotaktowa	!
2F\	-sis
*	*Xij
=75-	=75-
2BB-/	O-
2D/	-san-
2E-X\	-na
=76-	=76-
1D	in
1GG/	ex-
=77-	=77-
.	.
1D	-cel-
=78-	=78-
1.GGl;	-sis.
==	==
*-	*-
!!!RDF**kern: < = below
!!!RDF**kern: l = terminal long
!!!ENC: Andrzej Kubiczek
!!!END: 2021-08-03
!!!ENC: Berenika Jozajtis
!!!END: 2021-07-05
!!!YEC: Copyright 2022 Narodowy Instytut Fryderyka Chopina (https://polishscores.org)
!!!YEM: Licence CC BY 4.0 (https://creativecommons.org/licenses/by/4.0)
